X:75
T: Graf Friedrich
N: Q0048A
O: Suedosteuropa, Rumaenien, Siebenbuergen, Dobring
N: Tonartwechsel (Moll nach Dur) . Verzierung in der letzten Zeile.
N: Pause beim Taktwechsel weggelassen und im Schlusstakt ergnzt.
R: Ballade, Hochzeit, Mord / Unfall, Tod
M: 6/8
L: 1/16
K: E
E2 | B2A2B2A2=G2A2 | B2=G2F2z4
E2 | B2A2B2A2=G2A2 | B2=G2F2
F2E2^G2 | A4G2E2A2c2 | B6
e2B2G2 | E4B4AGFG | E4z4z2

@@@ Tune index: 811
